report_00007_2020-12-11T15:55:29.892Z/largest-contentful-paint/samples/pages+cached+nointeractive/score/values.svg

<svg width="640" height="490" xmlns="http://www.w3.org/2000/svg" xmlns:xlink="http://www.w3.org/1999/xlink"><path fill="#fff" d="M0 0h640v490H0z"/><defs><path id="d" stroke-width=".222" stroke="currentColor" d="M-1-1h2v2h-2z"/><path id="b" stroke-width=".222" stroke="currentColor" d="M0-1.33l-1.33 2h2.66z"/><path id="f" stroke-width=".222" stroke="currentColor" d="M0 1.33L1.265.411.782-1.067l-1.564-.009-.483 1.487z"/><use xlink:href="#b" id="c" stroke="currentColor" transform="rotate(180)"/><use xlink:href="#d" id="e" stroke="currentColor" transform="rotate(45)"/><circle id="a" stroke-width=".222" stroke="currentColor" cx="0" cy="0" r="1"/></defs><g fill="none" color="#000" stroke="currentColor"><path stroke="#000" d="M78.8 436h9m527.2 0h-9"/><text transform="translate(70.5 439.9)" stroke="none" fill="#000" font-family="Arial" font-size="12" text-anchor="end"><tspan>-0.001</tspan></text></g><g fill="none" color="#000" stroke="currentColor"><path stroke="#000" d="M78.8 340.3h9m527.2 0h-9"/><text transform="translate(70.5 344.2)" stroke="none" fill="#000" font-family="Arial" font-size="12" text-anchor="end"><tspan>-0.0005</tspan></text></g><g fill="none" color="#000" stroke="currentColor"><path stroke="#000" d="M78.8 244.6h9m527.2 0h-9"/><text transform="translate(70.5 248.5)" stroke="none" fill="#000" font-family="Arial" font-size="12" text-anchor="end"><tspan>0</tspan></text></g><g fill="none" color="#000" stroke="currentColor"><path stroke="#000" d="M78.8 148.8h9m527.2 0h-9"/><text transform="translate(70.5 152.7)" stroke="none" fill="#000" font-family="Arial" font-size="12" text-anchor="end"><tspan>0.0005</tspan></text></g><g fill="none" color="#000" stroke="currentColor"><path stroke="#000" d="M78.8 53.1h9m527.2 0h-9"/><text transform="translate(70.5 57)" stroke="none" fill="#000" font-family="Arial" font-size="12" text-anchor="end"><tspan>0.001</tspan></text></g><g fill="none" color="#000" stroke="currentColor"><path stroke="#000" d="M78.8 436v-9m0-408.9v9"/><text transform="translate(78.8 457.9)" stroke="none" fill="#000" font-family="Arial" font-size="12" text-anchor="middle"><tspan>0</tspan></text></g><g fill="none" color="#000" stroke="currentColor"><path stroke="#000" d="M133 436v-9m0-408.9v9"/><text transform="translate(133 457.9)" stroke="none" fill="#000" font-family="Arial" font-size="12" text-anchor="middle"><tspan>10</tspan></text></g><g fill="none" color="#000" stroke="currentColor"><path stroke="#000" d="M187.1 436v-9m0-408.9v9"/><text transform="translate(187.1 457.9)" stroke="none" fill="#000" font-family="Arial" font-size="12" text-anchor="middle"><tspan>20</tspan></text></g><g fill="none" color="#000" stroke="currentColor"><path stroke="#000" d="M241.3 436v-9m0-408.9v9"/><text transform="translate(241.3 457.9)" stroke="none" fill="#000" font-family="Arial" font-size="12" text-anchor="middle"><tspan>30</tspan></text></g><g fill="none" color="#000" stroke="currentColor"><path stroke="#000" d="M295.4 436v-9m0-408.9v9"/><text transform="translate(295.4 457.9)" stroke="none" fill="#000" font-family="Arial" font-size="12" text-anchor="middle"><tspan>40</tspan></text></g><g fill="none" color="#000" stroke="currentColor"><path stroke="#000" d="M349.6 436v-9m0-408.9v9"/><text transform="translate(349.6 457.9)" stroke="none" fill="#000" font-family="Arial" font-size="12" text-anchor="middle"><tspan>50</tspan></text></g><g fill="none" color="#000" stroke="currentColor"><path stroke="#000" d="M403.8 436v-9m0-408.9v9"/><text transform="translate(403.8 457.9)" stroke="none" fill="#000" font-family="Arial" font-size="12" text-anchor="middle"><tspan>60</tspan></text></g><g fill="none" color="#000" stroke="currentColor"><path stroke="#000" d="M457.9 436v-9m0-408.9v9"/><text transform="translate(457.9 457.9)" stroke="none" fill="#000" font-family="Arial" font-size="12" text-anchor="middle"><tspan>70</tspan></text></g><g fill="none" color="#000" stroke="currentColor"><path stroke="#000" d="M512.1 436v-9m0-408.9v9"/><text transform="translate(512.1 457.9)" stroke="none" fill="#000" font-family="Arial" font-size="12" text-anchor="middle"><tspan>80</tspan></text></g><g fill="none" color="#000" stroke="currentColor"><path stroke="#000" d="M566.3 436v-9m0-408.9v9"/><text transform="translate(566.3 457.9)" stroke="none" fill="#000" font-family="Arial" font-size="12" text-anchor="middle"><tspan>90</tspan></text></g><path stroke="#000" d="M78.8 18.1V436H615V18.1H78.8z" fill="none" color="#000"/><text transform="translate(338.2 475.9)" stroke="none" fill="#000" font-family="Arial" font-size="12" text-anchor="end" color="#000"><tspan>score</tspan></text><path stroke="#9400D3" d="M346.5 472h42.2M78.8 211.6l5.4 15.1 5.4.1 5.4.1h10.9l5.4-14.8 5.4-1.3 5.4 17 5.4-16.5 5.5 15.5 5.4-15.6 5.4-1.6 5.4 2 5.4 15.2 5.4.2 5.5-.4 5.4.4 5.4-.2 5.4-15.4 5.4 15.4 5.4.2 5.5-.1 5.4.1 5.4-15.9 5.4-1.1 5.4 17.6 5.4-18.1 5.5 35.1 5.4-1 5.4 1h5.4l5.4-.7 5.4-.3 5.4 1 5.5-.7 5.4.6 5.4.1H290l5.4-.7 5.5.7h37.9l5.4-.1 5.4.1 5.4-.1 5.4.1 5.5-1 5.4.3 5.4-.3 5.4 1 5.4-.1 5.4.1 5.5-1 5.4.3 5.4.7H420l5.4-.7h5.5l5.4.6 5.4-.6 5.4.6 5.4.1 5.4-7.2 5.4-2.4 5.5 8.9h5.4l5.4.7H501.3l5.4-1 5.4 1 5.4-7 5.4 7 5.4-1h5.5l5.4 1 5.4-.7 5.4.7 5.4-.7 5.4-9 5.5 9.7 5.4-.7 5.4.7 5.4-.7 5.4.7 5.4-1 5.5.3 5.4.7H615" fill="none" color="#000"/><g fill="none" color="#000" stroke="currentColor"><path stroke="#000" d="M78.8 18.1V436H615V18.1H78.8z"/></g></svg>

<?xml version="1.0" encoding="utf-8"  standalone="no"?>
<svg 
 width="640" height="490"
 viewBox="0 0 640 490"
 xmlns="http://www.w3.org/2000/svg"
 xmlns:xlink="http://www.w3.org/1999/xlink"
>

<title>Gnuplot</title>
<desc>Produced by GNUPLOT 5.4 patchlevel 0 </desc>

<g id="gnuplot_canvas">

<rect x="0" y="0" width="640" height="490" fill="#ffffff"/>
<defs>

	<circle id='gpDot' r='0.5' stroke-width='0.5' stroke='currentColor'/>
	<path id='gpPt0' stroke-width='0.222' stroke='currentColor' d='M-1,0 h2 M0,-1 v2'/>
	<path id='gpPt1' stroke-width='0.222' stroke='currentColor' d='M-1,-1 L1,1 M1,-1 L-1,1'/>
	<path id='gpPt2' stroke-width='0.222' stroke='currentColor' d='M-1,0 L1,0 M0,-1 L0,1 M-1,-1 L1,1 M-1,1 L1,-1'/>
	<rect id='gpPt3' stroke-width='0.222' stroke='currentColor' x='-1' y='-1' width='2' height='2'/>
	<rect id='gpPt4' stroke-width='0.222' stroke='currentColor' fill='currentColor' x='-1' y='-1' width='2' height='2'/>
	<circle id='gpPt5' stroke-width='0.222' stroke='currentColor' cx='0' cy='0' r='1'/>
	<use xlink:href='#gpPt5' id='gpPt6' fill='currentColor' stroke='none'/>
	<path id='gpPt7' stroke-width='0.222' stroke='currentColor' d='M0,-1.33 L-1.33,0.67 L1.33,0.67 z'/>
	<use xlink:href='#gpPt7' id='gpPt8' fill='currentColor' stroke='none'/>
	<use xlink:href='#gpPt7' id='gpPt9' stroke='currentColor' transform='rotate(180)'/>
	<use xlink:href='#gpPt9' id='gpPt10' fill='currentColor' stroke='none'/>
	<use xlink:href='#gpPt3' id='gpPt11' stroke='currentColor' transform='rotate(45)'/>
	<use xlink:href='#gpPt11' id='gpPt12' fill='currentColor' stroke='none'/>
	<path id='gpPt13' stroke-width='0.222' stroke='currentColor' d='M0,1.330 L1.265,0.411 L0.782,-1.067 L-0.782,-1.076 L-1.265,0.411 z'/>
	<use xlink:href='#gpPt13' id='gpPt14' fill='currentColor' stroke='none'/>
	<filter id='textbox' filterUnits='objectBoundingBox' x='0' y='0' height='1' width='1'>
	  <feFlood flood-color='#FFFFFF' flood-opacity='1' result='bgnd'/>
	  <feComposite in='SourceGraphic' in2='bgnd' operator='atop'/>
	</filter>
	<filter id='greybox' filterUnits='objectBoundingBox' x='0' y='0' height='1' width='1'>
	  <feFlood flood-color='lightgrey' flood-opacity='1' result='grey'/>
	  <feComposite in='SourceGraphic' in2='grey' operator='atop'/>
	</filter>
</defs>
<g fill="none" color="#FFFFFF" stroke="black" stroke-width="1.00" stroke-linecap="butt" stroke-linejoin="miter">
</g>
<g fill="none" color="black" stroke="currentColor" stroke-width="1.00" stroke-linecap="butt" stroke-linejoin="miter">
	<path stroke='black'  d='M78.8,436.0 L87.8,436.0 M615.0,436.0 L606.0,436.0  '/>	<g transform="translate(70.5,439.9)" stroke="none" fill="black" font-family="Arial" font-size="12.00"  text-anchor="end">
		<text><tspan font-family="Arial" >-0.001</tspan></text>
	</g>
</g>
<g fill="none" color="black" stroke="currentColor" stroke-width="1.00" stroke-linecap="butt" stroke-linejoin="miter">
	<path stroke='black'  d='M78.8,340.3 L87.8,340.3 M615.0,340.3 L606.0,340.3  '/>	<g transform="translate(70.5,344.2)" stroke="none" fill="black" font-family="Arial" font-size="12.00"  text-anchor="end">
		<text><tspan font-family="Arial" >-0.0005</tspan></text>
	</g>
</g>
<g fill="none" color="black" stroke="currentColor" stroke-width="1.00" stroke-linecap="butt" stroke-linejoin="miter">
	<path stroke='black'  d='M78.8,244.6 L87.8,244.6 M615.0,244.6 L606.0,244.6  '/>	<g transform="translate(70.5,248.5)" stroke="none" fill="black" font-family="Arial" font-size="12.00"  text-anchor="end">
		<text><tspan font-family="Arial" > 0</tspan></text>
	</g>
</g>
<g fill="none" color="black" stroke="currentColor" stroke-width="1.00" stroke-linecap="butt" stroke-linejoin="miter">
	<path stroke='black'  d='M78.8,148.8 L87.8,148.8 M615.0,148.8 L606.0,148.8  '/>	<g transform="translate(70.5,152.7)" stroke="none" fill="black" font-family="Arial" font-size="12.00"  text-anchor="end">
		<text><tspan font-family="Arial" > 0.0005</tspan></text>
	</g>
</g>
<g fill="none" color="black" stroke="currentColor" stroke-width="1.00" stroke-linecap="butt" stroke-linejoin="miter">
	<path stroke='black'  d='M78.8,53.1 L87.8,53.1 M615.0,53.1 L606.0,53.1  '/>	<g transform="translate(70.5,57.0)" stroke="none" fill="black" font-family="Arial" font-size="12.00"  text-anchor="end">
		<text><tspan font-family="Arial" > 0.001</tspan></text>
	</g>
</g>
<g fill="none" color="black" stroke="currentColor" stroke-width="1.00" stroke-linecap="butt" stroke-linejoin="miter">
	<path stroke='black'  d='M78.8,436.0 L78.8,427.0 M78.8,18.1 L78.8,27.1  '/>	<g transform="translate(78.8,457.9)" stroke="none" fill="black" font-family="Arial" font-size="12.00"  text-anchor="middle">
		<text><tspan font-family="Arial" > 0</tspan></text>
	</g>
</g>
<g fill="none" color="black" stroke="currentColor" stroke-width="1.00" stroke-linecap="butt" stroke-linejoin="miter">
	<path stroke='black'  d='M133.0,436.0 L133.0,427.0 M133.0,18.1 L133.0,27.1  '/>	<g transform="translate(133.0,457.9)" stroke="none" fill="black" font-family="Arial" font-size="12.00"  text-anchor="middle">
		<text><tspan font-family="Arial" > 10</tspan></text>
	</g>
</g>
<g fill="none" color="black" stroke="currentColor" stroke-width="1.00" stroke-linecap="butt" stroke-linejoin="miter">
	<path stroke='black'  d='M187.1,436.0 L187.1,427.0 M187.1,18.1 L187.1,27.1  '/>	<g transform="translate(187.1,457.9)" stroke="none" fill="black" font-family="Arial" font-size="12.00"  text-anchor="middle">
		<text><tspan font-family="Arial" > 20</tspan></text>
	</g>
</g>
<g fill="none" color="black" stroke="currentColor" stroke-width="1.00" stroke-linecap="butt" stroke-linejoin="miter">
	<path stroke='black'  d='M241.3,436.0 L241.3,427.0 M241.3,18.1 L241.3,27.1  '/>	<g transform="translate(241.3,457.9)" stroke="none" fill="black" font-family="Arial" font-size="12.00"  text-anchor="middle">
		<text><tspan font-family="Arial" > 30</tspan></text>
	</g>
</g>
<g fill="none" color="black" stroke="currentColor" stroke-width="1.00" stroke-linecap="butt" stroke-linejoin="miter">
	<path stroke='black'  d='M295.4,436.0 L295.4,427.0 M295.4,18.1 L295.4,27.1  '/>	<g transform="translate(295.4,457.9)" stroke="none" fill="black" font-family="Arial" font-size="12.00"  text-anchor="middle">
		<text><tspan font-family="Arial" > 40</tspan></text>
	</g>
</g>
<g fill="none" color="black" stroke="currentColor" stroke-width="1.00" stroke-linecap="butt" stroke-linejoin="miter">
	<path stroke='black'  d='M349.6,436.0 L349.6,427.0 M349.6,18.1 L349.6,27.1  '/>	<g transform="translate(349.6,457.9)" stroke="none" fill="black" font-family="Arial" font-size="12.00"  text-anchor="middle">
		<text><tspan font-family="Arial" > 50</tspan></text>
	</g>
</g>
<g fill="none" color="black" stroke="currentColor" stroke-width="1.00" stroke-linecap="butt" stroke-linejoin="miter">
	<path stroke='black'  d='M403.8,436.0 L403.8,427.0 M403.8,18.1 L403.8,27.1  '/>	<g transform="translate(403.8,457.9)" stroke="none" fill="black" font-family="Arial" font-size="12.00"  text-anchor="middle">
		<text><tspan font-family="Arial" > 60</tspan></text>
	</g>
</g>
<g fill="none" color="black" stroke="currentColor" stroke-width="1.00" stroke-linecap="butt" stroke-linejoin="miter">
	<path stroke='black'  d='M457.9,436.0 L457.9,427.0 M457.9,18.1 L457.9,27.1  '/>	<g transform="translate(457.9,457.9)" stroke="none" fill="black" font-family="Arial" font-size="12.00"  text-anchor="middle">
		<text><tspan font-family="Arial" > 70</tspan></text>
	</g>
</g>
<g fill="none" color="black" stroke="currentColor" stroke-width="1.00" stroke-linecap="butt" stroke-linejoin="miter">
	<path stroke='black'  d='M512.1,436.0 L512.1,427.0 M512.1,18.1 L512.1,27.1  '/>	<g transform="translate(512.1,457.9)" stroke="none" fill="black" font-family="Arial" font-size="12.00"  text-anchor="middle">
		<text><tspan font-family="Arial" > 80</tspan></text>
	</g>
</g>
<g fill="none" color="black" stroke="currentColor" stroke-width="1.00" stroke-linecap="butt" stroke-linejoin="miter">
	<path stroke='black'  d='M566.3,436.0 L566.3,427.0 M566.3,18.1 L566.3,27.1  '/>	<g transform="translate(566.3,457.9)" stroke="none" fill="black" font-family="Arial" font-size="12.00"  text-anchor="middle">
		<text><tspan font-family="Arial" > 90</tspan></text>
	</g>
</g>
<g fill="none" color="black" stroke="currentColor" stroke-width="1.00" stroke-linecap="butt" stroke-linejoin="miter">
</g>
<g fill="none" color="black" stroke="currentColor" stroke-width="1.00" stroke-linecap="butt" stroke-linejoin="miter">
	<path stroke='black'  d='M78.8,18.1 L78.8,436.0 L615.0,436.0 L615.0,18.1 L78.8,18.1 Z  '/></g>
<g fill="none" color="black" stroke="currentColor" stroke-width="1.00" stroke-linecap="butt" stroke-linejoin="miter">
</g>
	<g id="gnuplot_plot_1" ><title>score</title>
<g fill="none" color="black" stroke="currentColor" stroke-width="1.00" stroke-linecap="butt" stroke-linejoin="miter">
	<g transform="translate(338.2,475.9)" stroke="none" fill="black" font-family="Arial" font-size="12.00"  text-anchor="end">
		<text><tspan font-family="Arial" >score</tspan></text>
	</g>
</g>
<g fill="none" color="black" stroke="currentColor" stroke-width="1.00" stroke-linecap="butt" stroke-linejoin="miter">
	<path stroke='rgb(148,   0, 211)'  d='M346.5,472.0 L388.7,472.0 M78.8,211.6 L84.2,226.7 L89.6,226.8 L95.0,226.9 L100.5,226.9 L105.9,226.9
		L111.3,212.1 L116.7,210.8 L122.1,227.8 L127.5,211.3 L133.0,226.8 L138.4,211.2 L143.8,209.6 L149.2,211.6
		L154.6,226.8 L160.0,227.0 L165.5,226.6 L170.9,227.0 L176.3,226.8 L181.7,211.4 L187.1,226.8 L192.5,227.0
		L198.0,226.9 L203.4,227.0 L208.8,211.1 L214.2,210.0 L219.6,227.6 L225.0,209.5 L230.5,244.6 L235.9,243.6
		L241.3,244.6 L246.7,244.6 L252.1,243.9 L257.5,243.6 L262.9,244.6 L268.4,243.9 L273.8,244.5 L279.2,244.6
		L284.6,244.6 L290.0,244.6 L295.4,243.9 L300.9,244.6 L306.3,244.6 L311.7,244.6 L317.1,244.6 L322.5,244.6
		L327.9,244.6 L333.4,244.6 L338.8,244.6 L344.2,244.5 L349.6,244.6 L355.0,244.5 L360.4,244.6 L365.9,243.6
		L371.3,243.9 L376.7,243.6 L382.1,244.6 L387.5,244.5 L392.9,244.6 L398.4,243.6 L403.8,243.9 L409.2,244.6
		L414.6,244.6 L420.0,244.6 L425.4,243.9 L430.9,243.9 L436.3,244.5 L441.7,243.9 L447.1,244.5 L452.5,244.6
		L457.9,237.4 L463.3,235.0 L468.8,243.9 L474.2,243.9 L479.6,244.6 L485.0,244.6 L490.4,244.6 L495.8,244.6
		L501.3,244.6 L506.7,243.6 L512.1,244.6 L517.5,237.6 L522.9,244.6 L528.3,243.6 L533.8,243.6 L539.2,244.6
		L544.6,243.9 L550.0,244.6 L555.4,243.9 L560.8,234.9 L566.3,244.6 L571.7,243.9 L577.1,244.6 L582.5,243.9
		L587.9,244.6 L593.3,243.6 L598.8,243.9 L604.2,244.6 L609.6,244.6 L615.0,244.6  '/></g>
	</g>
<g fill="none" color="#FFFFFF" stroke="rgb(148,   0, 211)" stroke-width="2.00" stroke-linecap="butt" stroke-linejoin="miter">
</g>
<g fill="none" color="black" stroke="currentColor" stroke-width="2.00" stroke-linecap="butt" stroke-linejoin="miter">
</g>
<g fill="none" color="black" stroke="black" stroke-width="1.00" stroke-linecap="butt" stroke-linejoin="miter">
</g>
<g fill="none" color="black" stroke="currentColor" stroke-width="1.00" stroke-linecap="butt" stroke-linejoin="miter">
	<path stroke='black'  d='M78.8,18.1 L78.8,436.0 L615.0,436.0 L615.0,18.1 L78.8,18.1 Z  '/></g>
<g fill="none" color="black" stroke="currentColor" stroke-width="1.00" stroke-linecap="butt" stroke-linejoin="miter">
</g>
</g>
</svg>
